!!!!SEGMENT: pl-kk--kk-i-305--001_anonim--veni-sponsa.krn
!!!cenid: 17xx:2104
!!!COM: Anonim
!!!COM-rismID: pe30004985
!!!CDT:
!!!CNT:
!!!OTL: Veni sponsa
!!!PDT:
!!!AGN: Sacred
!!!YEC: Copyright 2022 Narodowy Instytut Fryderyka Chopina (https://polishscores.org)
!!!YEM: License CC-BY-4.0 (https://creativecommons.org/licenses/by/4.0)
!!!SMS-siglum: PL-Kk
!!!SMS-shelfmark: Kk.I.305
!!!SMS-shelfwork: 001 W
!!!SMS-variant: Canto: PL-Kk Kk.I.305:0009-0010; Alto: PL-Kk Kk.I.305:0012-0013
!!!SMS-altvar: Canto.: PL-Kk Kk.I.305:0003-0004; Alto.: PL-Kk Kk.I.305:0006-0007
!!!NIFC-rismSourceID: 1001147339
!!!NIFC-rismChildID: 1001147340
!!!NIFC-islandoraID: pl-kk:5163
!!!URL-pdf-islandora: https://repozytorium.nifc.pl/islandora/object/pl-kk%3A5163/datastream/PDF/view
!!!URL-scan: https://polish.musicsources.pl/pl/lokalizacje/galeria/rekopisy/5924 @EN{Scan on Polish Music Sources Website} @PL{Skany w portalu Dziedzictwo Muzyki Polskiej w otwartym dostępie}
!!!IIIF:
!!!ONB-nifc: UWAGA: utwory w zbiorze: 1. Veni sponsa (SATBBrip), 2. Diffusa est gratia (SA)
!!!AIN: 1 alto 2 empty 1 tenor 1 vox
!!!key:
**kern	**text	**kern	**text	**dynam	**kern	**text	**kern	**text	**dynam	**kern	**text	**dynam
*part5	*	*part4	*	*	*part3	*	*part2	*	*	*part1	*	*
*staff5	*	*staff4	*	*	*staff3	*	*staff2	*	*	*staff1	*	*
*Iempty	*	*Iempty	*	*	*Itenor	*	*Ialto	*	*	*Ivox	*	*
*I"Baſso e ripieno	*	*I"Baſso	*	*	*I"Tenore	*	*I"Alto	*	*	*I"Canto	*	*
*I'B rip	*	*I'B	*	*	*I'T	*	*I'A	*	*	*I'S	*	*
*clefF4	*	*clefF4	*	*	*clefC4	*	*clefC3	*	*	*clefC1	*	*
*k[]	*	*k[]	*	*	*k[]	*	*k[]	*	*	*k[]	*	*
*C:	*	*C:	*	*	*C:	*	*C:	*	*	*C:	*	*
*M3/2	*	*M3/2	*	*	*M3/2	*	*M3/2	*	*	*M3/2	*	*
=1	=1	=1	=1	=1	=1	=1	=1	=1	=1	=1	=1	=1
!	!	!	!	!	!	!	!	!	!	!LO:TX:t=P:problem=inicjał V	!	!
!LO:TX:t=P:problem=partia na karcie nr 0002	!	!LO:TX:t=P:problem=inicjał V	!	!	!LO:TX:t=P:problem=inicjał V	!	!LO:TX:t=P:problem=inicjał V	!	!	!LO:TX:t=P:problem=zapisano w 3/2 i 2/2; od karty nr 0009 [konsultowano z E.Z]	!	!
1C/	Ve-	1C/	Ve-	.	1c\	Ve-	1g\	Ve-	.	1ee\	Ve-	.
*	*	*	*	*	*2\right	*	*2\right	*	*	*2\right	*	*
2C/	-ni	2C/	-ni	.	2c\	-ni	2g\	-ni	.	2ee\	-ni	.
=2	=2	=2	=2	=2	=2	=2	=2	=2	=2	=2	=2	=2
1G\	/Ve-	1G\	/Ve-	.	(2c\	ve-	1g\	/Ve-	.	1dd\	/Ve-	.
.	.	.	.	.	2B\)	.	.	.	.	.	.	.
*2\right	*	*2\right	*	*	*	*	*	*	*	*	*	*
2G\	-ni/	2G\	-ni/	.	2B\	-ni	2g\	-ni/	.	2dd\	-ni/	.
=3	=3	=3	=3	=3	=3	=3	=3	=3	=3	=3	=3	=3
(4E\	Spon-	(4E\	Spon-	.	1c\	Spon-	(1g\	Spon-	.	1ee\	Spon-	.
4D\)	.	4D\)	.	.	.	.	.	.	.	.	.	.
2C/	.	2C/	.	.	.	.	.	.	.	.	.	.
2F\	.	2F\	.	.	[2c\	-sa	2a\)	.	.	1cc\	-sa	.
=4	=4	=4	=4	=4	=4	=4	=4	=4	=4	=4	=4	=4
2E\	-sa	2E\	-sa	.	2c\]	.	2g\	-sa	.	.	.	.
(2D\	Chris-	(2D\	Chris-	.	(2c\	Chris-	1f\	Chris-	.	1dd\	Chris-	.
2G\)	.	2G\)	.	.	2B\)	.	.	.	.	.	.	.
=5	=5	=5	=5	=5	=5	=5	=5	=5	=5	=5	=5	=5
1.C/	-ti	1.C/	-ti	.	1.c\	-ti	1.g\	-ti	.	1.ee\	-ti	.
=6	=6	=6	=6	=6	=6	=6	=6	=6	=6	=6	=6	=6
0.r	.	0.r	.	.	1.r	.	4e\	ac-	.	2.cc\	ac-	.
.	.	.	.	.	.	.	4d\	-ci-	.	.	.	.
.	.	.	.	.	.	.	(4c\	-pe	.	.	.	.
.	.	.	.	.	.	.	4d\)	.	.	4cc\	-ci-	.
.	.	.	.	.	.	.	(4e\	co-	.	4b\	-pe	.
.	.	.	.	.	.	.	4f\)	.	.	4a\	co-	.
=7	=7	=7	=7	=7	=7	=7	=7	=7	=7	=7	=7	=7
!	!	!	!	!	!	!	!	!	!	!	!LO:MO:mod=-ro-	!
.	.	.	.	.	4B\	ac-	2g\	-ro-	.	1dd\	-ra-	.
.	.	.	.	.	4A\	-ci-	.	.	.	.	.	.
.	.	.	.	.	(4G\	-pe	2g\	-nam	.	.	.	.
.	.	.	.	.	4A\)	.	.	.	.	.	.	.
.	.	.	.	.	(4B\	co-	2g\	co-	.	2dd\	-nam	.
.	.	.	.	.	4c\)	.	.	.	.	.	.	.
=8	=8	=8	=8	=8	=8	=8	=8	=8	=8	=8	=8	=8
4F\	ac-	4F\	ac-	.	1d\	-ro-	1f\	-ro-	.	4a\	ac-	.
4E\	-ci-	4E\	-ci-	.	.	.	.	.	.	4g\	-ci-	.
(4D\	-pe	(4D\	-pe	.	.	.	.	.	.	(4f/	-pe	.
4E\)	.	4E\)	.	.	.	.	.	.	.	4g/)	.	.
(4F\	co-	(4F\	co-	.	2d\	-nam	2f\	-nam	.	(4a\	co-	.
4G\)	.	4G\)	.	.	.	.	.	.	.	4b\)	.	.
!LO:LB:g=original	!	!	!	!	!LO:LB:g=original	!	!	!	!	!	!	!
=9	=9	=9	=9	=9	=9	=9	=9	=9	=9	=9	=9	=9
1A\	-ro-	1A\	-ro-	.	4c\	ac-	4e\	ac-	.	1cc\	-ro-	.
.	.	.	.	.	4B\	-ci-	4d\	-ci-	.	.	.	.
.	.	.	.	.	(4A\	-pe	(4c\	-pe	.	.	.	.
.	.	.	.	.	4B\)	.	4d\)	.	.	.	.	.
2A\	-nam	2A\	-nam	.	(4c\	co-	(4e\	co-	.	2cc\	-nam	.
.	.	.	.	.	4d\)	.	4f#X\)	.	.	.	.	.
!	!	!LO:LB:g=original	!	!	!	!	!LO:LB:g=original	!	!	!LO:LB:g=original	!	!
=10	=10	=10	=10	=10	=10	=10	=10	=10	=10	=10	=10	=10
4G#X\	ac-	4G#X\	ac-	.	1e\	-ro-	1g#X\	-ro-	.	4b\	aci-	.
4F#X\	-ci-	4F#X\	-ci-	.	.	.	.	.	.	4a\	-ci-	.
(4E\	-pe	(4E\	-pe	.	.	.	.	.	.	(4g#X\	-pe	.
4F#\)	.	4F#X\)	.	.	.	.	.	.	.	4a\)	.	.
(4G#\	co-	(4G#X\	co-	.	2e\	-nam	2g#\	-nam	.	(4b\	co-	.
4A\)	.	4A\)	.	.	.	.	.	.	.	4cc\)	.	.
=11	=11	=11	=11	=11	=11	=11	=11	=11	=11	=11	=11	=11
!	!	!	!	!	!	!	!LO:SIC:v:s=2g#	!	!	!	!	!
2B\	-ro-	2B\	-ro-	.	2d\	co-	2g\	co-	.	(1dd\	-ro-	.
2G#X\	-nam	2G#X\	-nam	.	2B\	-ro-	1e\	-ro-	.	.	.	.
2A\	co-	2A\	co-	.	2c\	-nam	.	.	.	2cc\)	.	.
=12	=12	=12	=12	=12	=12	=12	=12	=12	=12	=12	=12	=12
[1.E\	-ro-	[1.E\	-ro-	.	4G#X/	co-	1e\	-nam	.	1b\	-nam	.
.	.	.	.	.	4A/	.	.	.	.	.	.	.
.	.	.	.	.	4B\	.	.	.	.	.	.	.
.	.	.	.	.	4c\	.	.	.	.	.	.	.
.	.	.	.	.	4d\	.	2e\	co-	.	2r	.	.
.	.	.	.	.	4c\	.	.	.	.	.	.	.
=13	=13	=13	=13	=13	=13	=13	=13	=13	=13	=13	=13	=13
1.E\_	.	1.E\_	.	.	4B\	.	1e\	-ro-	.	4g#X\	co-	.
.	.	.	.	.	4A\	.	.	.	.	4a\	.	.
.	.	.	.	.	4G#X\	.	.	.	.	4b\	.	.
.	.	.	.	.	4A\	.	.	.	.	4cc\	.	.
.	.	.	.	.	4B\	.	2e\	-nam	.	4dd\	.	.
.	.	.	.	.	4c\	.	.	.	.	4cc\	.	.
=14	=14	=14	=14	=14	=14	=14	=14	=14	=14	=14	=14	=14
1.E\]	.	1.E\]	.	.	1.d\	-ro-	4g#X\	co-	.	4b\	.	.
.	.	.	.	.	.	.	4a\	.	.	4a\	.	.
.	.	.	.	.	.	.	4b\	.	.	4g#X\	.	.
.	.	.	.	.	.	.	4cc\	.	.	4a\	.	.
.	.	.	.	.	.	.	4dd\	.	.	4b\	.	.
.	.	.	.	.	.	.	4cc\	.	.	4cc\	.	.
=15	=15	=15	=15	=15	=15	=15	=15	=15	=15	=15	=15	=15
4E\	.	4E\	.	.	1.G#X/	-nam	2.b\	-ro-	.	1.dd\	ro-	.
4F#X\	.	4F#X\	.	.	.	.	.	.	.	.	.	.
4G#X\	.	4G#X\	.	.	.	.	.	.	.	.	.	.
4A\	.	4A\	.	.	.	.	4a\	.	.	.	.	.
4B\	.	4B\	.	.	.	.	4g#X\	.	.	.	.	.
4A\	.	4A\	.	.	.	.	4a\	.	.	.	.	.
!LO:LB:g=original	!	!	!	!	!	!	!	!	!	!	!	!
=16	=16	=16	=16	=16	=16	=16	=16	=16	=16	=16	=16	=16
2G#X\	.	2G#X\	.	.	(1d\	co-	2e\	.	.	1b\	.	.
2E\	.	2E\	.	.	.	.	2g#X\	-nam	.	.	.	.
2A\	-nam	2A\	-nam	.	2e\)	.	[<2a\	co-	.	[2cc\	-nam	.
!	!	!	!	!	!LO:LB:g=original	!	!	!	!	!	!	!
=17	=17	=17	=17	=17	=17	=17	=17	=17	=17	=17	=17	=17
2D#X\	co-	2D#X\	co-	.	2f#X\	-ro-	2a\]	.	.	2cc\]	.	.
1E\	-ro-	1E\	-ro-	.	1e\	.	2a\	-ro-	.	2b\	co-	.
.	.	.	.	.	.	.	2g#X\	.	.	2b\	-ro-	.
!	!	!LO:LB:g=original	!	!	!	!	!LO:LB:g=original	!	!	!LO:LB:g=original	!	!
=18	=18	=18	=18	=18	=18	=18	=18	=18	=18	=18	=18	=18
2AA/	-nam	2AA/	-nam	.	2e\	-nam	4a\	-nam	.	4cc\	-nam	.
.	.	.	.	.	.	.	4cc\	quam	.	4ee\	qua(m)	.
2r	.	2r	.	.	2r	.	4cc\	ti-	.	4ee\	ti-	.
.	.	.	.	.	.	.	4b\	-bi	.	4dd\	-bi	.
2r	.	2r	.	.	2r	.	4a\	/ti-	.	4cc\	/ti-	.
.	.	.	.	.	.	.	4g\	-bi/	.	4b\	-bi/	.
=19	=19	=19	=19	=19	=19	=19	=19	=19	=19	=19	=19	=19
4r	.	4r	.	.	4r	.	2.a\	Do-	.	2.cc\	Do-	.
4A\	quam	4A\	quam	.	4e\	quam	.	.	.	.	.	.
4A\	Ti-	4A\	ti-	.	4e\	ti-	.	.	.	.	.	.
4G\	-bi	4G\	-bi	.	4e\	-bi	4a\	-mi-	.	4cc\	-mi-	.
4F\	/Ti-	4F\	/ti-	.	4d\	/ti-	2a\	-nus	.	2cc\	-nus	.
4E\	-bi/	4E\	-bi/	.	4e\	-bi/	.	.	.	.	.	.
=20	=20	=20	=20	=20	=20	=20	=20	=20	=20	=20	=20	=20
2.D\	Do-	2.D\	Do-	.	2.f\	Do-	4r	.	.	4r	.	.
.	.	.	.	.	.	.	4a\	quam	.	4ff\	quam	.
.	.	.	.	.	.	.	4a\	ti-	.	4ff\	ti-	.
4D\	-mi-	4D\	-mi-	.	4f\	-mi-	4g\	-bi	.	4ee\	-bi	.
2D\	-nus	2D\	-nus	.	2f\	-nus	4f\	/ti-	.	4dd\	/ti-	.
.	.	.	.	.	.	.	4e\	-bi/	.	4cc\	-bi/	.
=21	=21	=21	=21	=21	=21	=21	=21	=21	=21	=21	=21	=21
.	.	.	.	.	.	.	.	.	.	8qqcc/	.	.
4r	.	4r	.	.	4r	.	2.d\	Do-	.	2.b\	Do-	.
4G\	quam	4G\	quam	.	4B\	quam	.	.	.	.	.	.
4G\	ti-	4G\	ti-	.	4B\	ti-	.	.	.	.	.	.
4F\	-bi	4F\	-bi	.	4B\	-bi	4d\	-mi-	.	4b\	-mi-	.
!LO:LB:g=original	!	!	!	!	!	!	!	!	!	!	!	!
4E\	/ti-	4E\	/ti-	.	4c\	/ti-	2d\	-nus	.	2b\	-nus	.
4D\	-bi/	4D\	-bi/	.	4d\	-bi/	.	.	.	.	.	.
=22	=22	=22	=22	=22	=22	=22	=22	=22	=22	=22	=22	=22
2C/	Do-	2C/	Do-	.	2e\	Do-	2g\	Do-	.	2ee\	Do-	.
4C/	-mi-	4C/	-mi-	.	4c\	-mi-	4g\	-mi-	.	4ee\	-mi-	.
4D/	-nus	4D/	-nus	.	4B\	-nus	4f\	-nus	.	4dd\	-nus	.
4E\	prae-	4E\	prae-	.	4c\	prae-	4g\	prae-	.	4cc\	prae-	.
4F\	-pa-	4F\	-pa-	.	4f\	-pa-	4a\	-pa-	.	4dd\	-pa-	.
=23	=23	=23	=23	=23	=23	=23	=23	=23	=23	=23	=23	=23
[1.G\	-ra-	[1.G\	-ra-	.	1.d\	-ra-	1.g\	-ra-	.	4b\	-ra-	.
.	.	.	.	.	.	.	.	.	.	4a\	.	.
.	.	.	.	.	.	.	.	.	.	4g\	.	.
.	.	.	.	.	.	.	.	.	.	4a\	.	.
.	.	.	.	.	.	.	.	.	.	4b\	.	.
.	.	.	.	.	.	.	.	.	.	4cc\	.	.
!	!	!LO:LB:g=original	!	!	!	!	!	!	!	!LO:LB:g=original	!	!
=24	=24	=24	=24	=24	=24	=24	=24	=24	=24	=24	=24	=24
1.G\_	.	1.G\_	.	.	1.B\	.	4b\	.	.	4dd\	.	.
.	.	.	.	.	.	.	4a\	.	.	4cc\	.	.
.	.	.	.	.	.	.	4g\	.	.	4b\	.	.
.	.	.	.	.	.	.	4a\	.	.	4cc\	.	.
.	.	.	.	.	.	.	4b\	.	.	4dd\	.	.
.	.	.	.	.	.	.	4cc\	.	.	4ee\	.	.
!	!	!	!	!	!LO:LB:g=original	!	!LO:LB:g=original	!	!	!	!	!
=25	=25	=25	=25	=25	=25	=25	=25	=25	=25	=25	=25	=25
1.G\]	.	1.G\]	.	.	4B\	.	4dd\	.	.	1.ff\	.	.
.	.	.	.	.	4A\	.	4cc\	.	.	.	.	.
.	.	.	.	.	4G\	.	4b\	.	.	.	.	.
.	.	.	.	.	4A\	.	4a\	.	.	.	.	.
.	.	.	.	.	4B\	.	4g\	.	.	.	.	.
.	.	.	.	.	4c\	.	4a\	.	.	.	.	.
=26	=26	=26	=26	=26	=26	=26	=26	=26	=26	=26	=26	=26
4G\	.	4G\	.	.	4d\	.	2b\	-vit	.	2dd\	vit	.
4A\	.	4A\	.	.	4c\	.	.	.	.	.	.	.
4B\	.	4B\	.	.	4d\	.	2g\	prae-	.	2dd\	prae-	.
4c\	.	4c\	.	.	4e\	.	.	.	.	.	.	.
4d\	.	4d\	.	.	4f\	.	2g\	-pa-	.	2dd\	-pa-	.
4c\	.	4c\	.	.	4e\	.	.	.	.	.	.	.
=27	=27	=27	=27	=27	=27	=27	=27	=27	=27	=27	=27	=27
2B\	.	2B\	.	.	2.d\	.	2g\	-ra-	.	2.ff\	-ra-	.
2G\	-vit	2G\	-vit	.	.	.	2b\	-vit	.	.	.	.
.	.	.	.	.	4d\	-vit	.	.	.	4ff\	-vit	.
2c\	in	2c\	in	.	2e\	in	2g\	in	.	2ee\	in	.
=28	=28	=28	=28	=28	=28	=28	=28	=28	=28	=28	=28	=28
2A\	ae-	2A\	ae-	.	2c\	ae-	(4f\	ae-	.	2ff\	ae-	.
.	.	.	.	.	.	.	4g\)	.	.	.	.	.
.	.	.	.	.	.	.	.	.	.	8qqee/	.	.
2F\	-ter-	2F\	-ter-	.	(2c\	-ter-	2a\	-ter-	.	1dd\	-ter-	.
2G\	.	2G\	.	.	2B\)	.	2g\	.	.	.	.	.
!LO:LB:g=original	!	!	!	!	!	!	!	!	!	!	!	!
=29	=29	=29	=29	=29	=29	=29	=29	=29	=29	=29	=29	=29
!	!	!	!	!LO:DY:a:t=p&colon;	!	!	!	!	!	!	!	!
4C/	-num	4C/	-num	p	4c\	-num	2g\	-num	.	1ee\	-num	.
4c\	qua(m)	4c\	qua(m)	.	4e\	qua(m)	.	.	.	.	.	.
4c\	ti-	4c\	ti-	.	4e\	ti-	2r	.	.	.	.	.
4B-X\	-bi	4B-X\	-bi	.	4e\	-bi	.	.	.	.	.	.
4A\	/ti-	4A\	/ti-	.	4d\	ti-	2r	.	.	2r	.	.
4G\	-bi/	4G\	-bi/	.	4e\	-bi	.	.	.	.	.	.
=30	=30	=30	=30	=30	=30	=30	=30	=30	=30	=30	=30	=30
!	!	!	!	!	!	!	!	!	!LO:DY:a:t=p&colon;	!	!	!LO:DY:a:t=p&colon;
2.F\	Do-	2.F\	Do-	.	2.c\	Do-	4r	.	p	4r	.	p
.	.	.	.	.	.	.	4a\	quam	.	4ff\	quam	.
.	.	.	.	.	.	.	4a\	ti-	.	4ff\	ti-	.
4F\	-mi-	4F\	-mi-	.	4c\	-mi-	4g\	-bi	.	4ee\	-bi	.
2F\	-nus	2F\	-nus	.	2c\	-nus	4f\	/ti-	.	4dd\	/ti-	.
.	.	.	.	.	.	.	4e\	-bi/	.	4cc\	-bi/	.
=31	=31	=31	=31	=31	=31	=31	=31	=31	=31	=31	=31	=31
.	.	.	.	.	.	.	.	.	.	8qqcc/	.	.
4r	.	4r	.	.	4r	.	2.d\	Do-	.	2.b\	Do-	.
4G\	quam	4G\	quam	.	4B\	quam	.	.	.	.	.	.
4G\	ti-	4G\	ti-	.	4B\	ti-	.	.	.	.	.	.
4F\	-bi	4F\	-bi	.	4B\	-bi	4d\	-mi-	.	4b\	-mi-	.
!	!	!LO:LB:g=original	!	!	!LO:LB:g=original	!	!	!	!	!	!	!
4E\	/ti-	4E\	/ti-	.	4c\	/ti-	2d\	-nus	.	2b\	-nus	.
4D\	-bi/	4D\	-bi/	.	4d\	-bi/	.	.	.	.	.	.
!	!	!	!	!	!	!	!LO:LB:g=original	!	!	!LO:LB:g=original	!	!
=32	=32	=32	=32	=32	=32	=32	=32	=32	=32	=32	=32	=32
2C/	do-	2C/	Do-	.	2e\	Do-	2g\	Do-	.	2ee\	Do-	.
4C/	-mi-	4C/	-mi-	.	4c\	-mi-	4g\	-mi-	.	4ee\	-mi-	.
4D/	-nus	4D/	-nus	.	4B\	-nus	4f\	-nus	.	4dd\	-nus	.
4E/	prae-	4E/	prae-	.	4c\	prae-	4g\	prae-	.	4cc\	prae-	.
4F/	-pa-	4F/	-pa-	.	4f\	-pa-	4a\	-pa-	.	4dd\	-pa-	.
=33	=33	=33	=33	=33	=33	=33	=33	=33	=33	=33	=33	=33
1.G\	-ra-	[1.G\	-ra-	.	1.d\	-ra-	1.g\	-ra-	.	4b\	-ra-	.
.	.	.	.	.	.	.	.	.	.	4a\	.	.
.	.	.	.	.	.	.	.	.	.	4g\	.	.
.	.	.	.	.	.	.	.	.	.	4a\	.	.
.	.	.	.	.	.	.	.	.	.	4b\	.	.
.	.	.	.	.	.	.	.	.	.	4cc\	.	.
!LO:LB:g=original	!	!	!	!	!	!	!	!	!	!	!	!
=34	=34	=34	=34	=34	=34	=34	=34	=34	=34	=34	=34	=34
[1.G\	.	1.G\_	.	.	1.B\	.	4b\	.	.	4dd\	.	.
.	.	.	.	.	.	.	4a\	.	.	4cc\	.	.
.	.	.	.	.	.	.	4g\	.	.	4b\	.	.
.	.	.	.	.	.	.	4a\	.	.	4cc\	.	.
.	.	.	.	.	.	.	4b\	.	.	4dd\	.	.
.	.	.	.	.	.	.	4cc\	.	.	4ee\	.	.
=35	=35	=35	=35	=35	=35	=35	=35	=35	=35	=35	=35	=35
1.G\]	.	1.G\]	.	.	4B\	.	4dd\	.	.	1.ff\	.	.
.	.	.	.	.	4A\	.	4cc\	.	.	.	.	.
.	.	.	.	.	4G\	.	4b\	.	.	.	.	.
.	.	.	.	.	4A\	.	4a\	.	.	.	.	.
.	.	.	.	.	4B\	.	4g\	.	.	.	.	.
.	.	.	.	.	4c\	.	4a\	.	.	.	.	.
=36	=36	=36	=36	=36	=36	=36	=36	=36	=36	=36	=36	=36
4G\	.	4G\	.	.	4d\	.	2b\	-vit	.	2dd\	-vit	.
4A\	.	4A\	.	.	4c\	.	.	.	.	.	.	.
4B\	.	4B\	.	.	4d\	.	2g\	prae-	.	2dd\	prae-	.
4c\	.	4c\	.	.	4e\	.	.	.	.	.	.	.
4d\	.	4d\	.	.	4f\	.	2g\	-pa-	.	2dd\	-pa-	.
4c\	.	4c\	.	.	4e\	.	.	.	.	.	.	.
=37	=37	=37	=37	=37	=37	=37	=37	=37	=37	=37	=37	=37
2B\	.	2B\	.	.	2.d\	.	2g\	-ra-	.	2.ff\	-ra-	.
2G\	-vit	2G\	-vit	.	.	.	2b\	-vit	.	.	.	.
.	.	.	.	.	4d\	-vit	.	.	.	4ff\	-vit	.
2c\	in	2c\	in	.	2e\	in	2g\	in	.	2ee\	in	.
=38	=38	=38	=38	=38	=38	=38	=38	=38	=38	=38	=38	=38
2A\	ae-	2A\	ae-	.	2c\	ae-	(4f\	ae-	.	2ff\	ae-	.
.	.	.	.	.	.	.	4g\)	.	.	.	.	.
2F\	-ter-	(2F\	-ter-	.	(2c\	-ter-	(2a\	-ter-	.	1dd\	-ter-	.
2G\	.	2G\)	.	.	2B\)	.	2g\)	.	.	.	.	.
!	!	!LO:LB:g=original	!	!	!LO:LB:g=original	!	!LO:LB:g=original	!	!	!LO:LB:g=original	!	!
=39	=39	=39	=39	=39	=39	=39	=39	=39	=39	=39	=39	=39
2C/	-num	2C/	-num	.	2c\	-num	2g\	-num	.	2ee\	-num	.
!	!	!	!	!LO:DY:a:t=for	!	!	!	!	!LO:DY:a:t=fo.	!	!	!LO:DY:a:t=for&colon;
2F\	in	2F\	in	f	2A\	in	2a\	in	f	2cc\	in	f
2E\	ae-	2E\	ae-	.	2c\	ae-	2g\	ae-	.	2cc\	ae-	.
=40	=40	=40	=40	=40	=40	=40	=40	=40	=40	=40	=40	=40
1.F\	-ter-	1.F\	-ter-	.	1.A\	-ter-	1.f\	-ter-	.	1.cc\	-ter-	.
=41	=41	=41	=41	=41	=41	=41	=41	=41	=41	=41	=41	=41
!	!	!LO:TX:b:t=Verte Seque	!	!	!LO:TX:b:t=Verte Seque	!	!LO:TX:b:t=Verte Seque	!	!	!LO:TX:b:t=Verte Seque	!	!
1.C/;	-num	1.C/;	-num	.	1.G/;	-num.	1.e\;	-num	.	1.cc\;	-num	.
!LO:LB:g=original	!	!LO:PB:g=original	!	!	!LO:PB:g=original	!	!LO:PB:g=original	!	!	!LO:PB:g=original	!	!
=42||	=42||	=42||	=42||	=42||	=42||	=42||	=42||	=42||	=42||	=42||	=42||	=42||
*M2/2	*	*M2/2	*	*	*M2/2	*	*M2/2	*	*	*M2/2	*	*
*met(c|)	*	*met(c|)	*	*	*met(c|)	*	*met(c|)	*	*	*met(c|)	*	*
!LO:TX:a:B:t=allabreve	!	!LO:TX:a:B:t=allabreve	!	!	!LO:TX:a:B:t=allo.	!	!	!	!	!LO:TX:a:B:t=allabreve	!	!
2A\	Di-	2A\	Di-	.	2A\	Di-	2e\	Di-	.	2cc\	Di-	.
2A\	-le-	2A\	-le-	.	2A\	-le-	2e\	-le-	.	2cc\	-le-	.
=43	=43	=43	=43	=43	=43	=43	=43	=43	=43	=43	=43	=43
2G#X\	-xi-	2G#X\	-xi-	.	2e\	-xi-	2e\	-xi-	.	2b\	-xi-	.
4G#\	-sti	4G#\	-sti	.	4B\	-sti	4g#X\	-sti	.	4ee\	-fti	.
4E\	Jus-	4E\	Jus-	.	4B\	jus-	4g#\	jus-	.	4dd\	jus-	.
=44	=44	=44	=44	=44	=44	=44	=44	=44	=44	=44	=44	=44
4.A\	-ti-	4.A\	-ti-	.	4.A\	-ti-	4.e\	-ti-	.	4.cc\	-ti-	.
8A\	-ti-	8A\	-ti-	.	8A\	-ti-	8e\	-ti-	.	8cc\	-ti-	.
2A\	-am	2A\	-am	.	2A\	-am	2e\	-am	.	2cc\	-am	.
=45	=45	=45	=45	=45	=45	=45	=45	=45	=45	=45	=45	=45
1r	.	1r	.	.	1r	.	1r	.	.	2.ee\	et	.
.	.	.	.	.	.	.	.	.	.	4dd\	o-	.
=46	=46	=46	=46	=46	=46	=46	=46	=46	=46	=46	=46	=46
2.A\	et	2.A\	et	.	2c\	et	2e\	et	.	(4cc\	-di-	.
.	.	.	.	.	.	.	.	.	.	4b\)	.	.
.	.	.	.	.	2c\	o-	2e\	o-	.	4a\	-sti	.
4G\	o-	4G\	o-	.	.	.	.	.	.	4cc\	i-	.
=47	=47	=47	=47	=47	=47	=47	=47	=47	=47	=47	=47	=47
(4F\	-di-	(4F\	-di-	.	2f\	-di-	2a\	-di-	.	2.dd\	-ni-	.
4E\)	.	4E\)	.	.	.	.	.	.	.	.	.	.
4D\	-ſti	4D\	-sti	.	4f\	-sti	4a\	-sti	.	.	.	.
4F\	in-	4F\	in-	.	4f\	i-	4a\	in-	.	4cc\	-qui-	.
=48	=48	=48	=48	=48	=48	=48	=48	=48	=48	=48	=48	=48
2.G\	-i-	2.G\	-i-	.	2B\	-ni-	2d\	-i-	.	(4b\	-ta-	.
.	.	.	.	.	.	.	.	.	.	4a\)	.	.
.	.	.	.	.	2B\	-qui-	2d\	-qui-	.	4g\	-tem	.
4F\	-qui	4F\	-qui-	.	.	.	.	.	.	4b\	prop-	.
=49	=49	=49	=49	=49	=49	=49	=49	=49	=49	=49	=49	=49
!LO:TX:t=P:problem=partia urywa się [brak dalszego fragmentu]	!	!	!	!	!	!	!	!	!	!	!	!
1ryy	.	(4E\	-ta-	.	2e\	-ta-	2g\	-ta-	.	2cc\	-te-	.
.	.	4D\)	.	.	.	.	.	.	.	.	.	.
.	.	4C\	-tem	.	4e\	-tem	4g\	-tem	.	4cc\	-re-	.
.	.	4E\	prop-	.	4e\	prop-	4g\	prop-	.	4b-X\	-a	.
!	!	!LO:LB:g=original	!	!	!LO:LB:g=original	!	!LO:LB:g=original	!	!	!LO:LB:g=original	!	!
=50	=50	=50	=50	=50	=50	=50	=50	=50	=50	=50	=50	=50
1ryy	.	2F\	-te-	.	2A\	-te-	2c\	-te-	.	(4a\	un-	.
.	.	.	.	.	.	.	.	.	.	4g\)	.	.
.	.	4F\	-re-	.	4A\	-re-	4c\	-re-	.	4f/	-xit	.
.	.	4E\	-a	.	4c\	-a	4e\	-a	.	4g\	un-	.
=51	=51	=51	=51	=51	=51	=51	=51	=51	=51	=51	=51	=51
1ryy	.	2D/	un-	.	(4A\	un-	2f\	un-	.	(4cc\	-xit	.
.	.	.	.	.	4B\)	.	.	.	.	4dd\)	.	.
.	.	4C/	-xit	.	4c\	-xit	4g\	-xit	.	2ee\	te	.
.	.	4E/	te	.	4c\	te	4g\	te	.	.	.	.
=52	=52	=52	=52	=52	=52	=52	=52	=52	=52	=52	=52	=52
1ryy	.	2F\	De-	.	(2c\	De-	2a\	De-	.	1dd\	De-	.
.	.	2G\	.	.	2G/)	.	2d\	-us	.	.	.	.
=53	=53	=53	=53	=53	=53	=53	=53	=53	=53	=53	=53	=53
1ryy	.	1C/	-us	.	1G/	-us	2c\	De-	.	4ee\	-us	.
.	.	.	.	.	.	.	.	.	.	2g/	De-	.
.	.	.	.	.	.	.	2e\	-us	.	.	.	.
.	.	.	.	.	.	.	.	.	.	4cc\	-us	.
=54	=54	=54	=54	=54	=54	=54	=54	=54	=54	=54	=54	=54
.	.	.	.	.	.	.	.	.	.	8qqdd/	.	.
1ryy	.	00r	.	.	0r	.	2d\	tu-	.	2.cc\	tu-	.
.	.	.	.	.	.	.	2g\	-us	.	.	.	.
.	.	.	.	.	.	.	.	.	.	4b\	-us	.
=55	=55	=55	=55	=55	=55	=55	=55	=55	=55	=55	=55	=55
1ryy	.	.	.	.	.	.	4c\	o-	.	4cc\	o-	.
.	.	.	.	.	.	.	4e\	-le-	.	(8g\L	-le-	.
.	.	.	.	.	.	.	.	.	.	8a\J)	.	.
.	.	.	.	.	.	.	4d\	-o	.	4b\	-o	.
.	.	.	.	.	.	.	4c\	jus-	.	4ee\	jus-	.
=56	=56	=56	=56	=56	=56	=56	=56	=56	=56	=56	=56	=56
1ryy	.	.	.	.	2G/	De-	4B/	-ti-	.	2.dd\	-ti-	.
.	.	.	.	.	.	.	4d/	-ti-	.	.	.	.
.	.	.	.	.	2B\	-us	2g\	-ae	.	.	.	.
.	.	.	.	.	.	.	.	.	.	4dd\	-ti-	.
=57	=57	=57	=57	=57	=57	=57	=57	=57	=57	=57	=57	=57
1ryy	.	.	.	.	2A\	tu-	2.g\	o-	.	4cc\	-ae	.
.	.	.	.	.	.	.	.	.	.	2cc\	o-	.
.	.	.	.	.	2d\	-us	.	.	.	.	.	.
.	.	.	.	.	.	.	4f#X\	-le-	.	4a\	-le-	.
!	!	!	!	!	!	!	!LO:LB:g=original	!	!	!LO:LB:g=original	!	!
=58	=58	=58	=58	=58	=58	=58	=58	=58	=58	=58	=58	=58
1ryy	.	1r	.	.	4G/	o-	4g,\	-o	.	4b\	-o	.
.	.	.	.	.	4B/	-le-	4d\	jus-	.	4g\	jus-	.
.	.	.	.	.	4A/	-o	4c\	-ti-	.	4cc\	-ti-	.
.	.	.	.	.	4G/	jus-	4g\	-ti-	.	4dd\	-ti-	.
=59	=59	=59	=59	=59	=59	=59	=59	=59	=59	=59	=59	=59
1ryy	.	2C/	De-	.	4.c\	-ti-	4g\	-ae	.	4ee\	-ae	.
.	.	.	.	.	.	.	2g\	De-	.	2ee\	De-	.
.	.	.	.	.	8B\	-ti-	.	.	.	.	.	.
.	.	2E\	-us	.	4c\	-ae	.	.	.	.	.	.
.	.	.	.	.	4c\	jus-	4g\	-us	.	4cc\	-us	.
!	!	!	!	!	!LO:LB:g=original	!	!	!	!	!	!	!
=60	=60	=60	=60	=60	=60	=60	=60	=60	=60	=60	=60	=60
.	.	.	.	.	8qqd/	.	.	.	.	.	.	.
1ryy	.	2D\	tu-	.	2c\	-ti-	2a\	tu-	.	(4ff\	tu-	.
.	.	.	.	.	.	.	.	.	.	4ee\)	.	.
.	.	2G\	-us	.	4c\	-ti-	2g\	.	.	2dd\	.	.
.	.	.	.	.	4B\	-ae	.	.	.	.	.	.
=61	=61	=61	=61	=61	=61	=61	=61	=61	=61	=61	=61	=61
1ryy	.	4C/	o-	.	4c\	o-	2g\	-us	.	2ee\	-us	.
.	.	4E/	-le-	.	4c\	-le-	.	.	.	.	.	.
.	.	4D/	-o	.	4d\	-o	4r	.	.	4r	.	.
.	.	4C/	Jus-	.	4e\	jus-	4g\	prop-	.	4g/	prop-	.
=62	=62	=62	=62	=62	=62	=62	=62	=62	=62	=62	=62	=62
1ryy	.	4BB/	-ti-	.	4.d\	-ti-	2b\	-te-	.	2gg\	-te-	.
.	.	4AA/	-ti-	.	.	.	.	.	.	.	.	.
.	.	.	.	.	8c\	-ti-	.	.	.	.	.	.
.	.	4GG/	-ae	.	4d\	-ae	4b\	-re-	.	4gg\	-re-	.
.	.	4G\	prop-	.	4d\	prop-	4b\	-a	.	4ff\	-a	.
!	!	!LO:LB:g=original	!	!	!	!	!	!	!	!	!	!
=63	=63	=63	=63	=63	=63	=63	=63	=63	=63	=63	=63	=63
1ryy	.	2c\	-te-	.	2e\	-te-	(4g\	un-	.	(4ee\	un-	.
.	.	.	.	.	.	.	4f\)	.	.	4dd\)	.	.
.	.	4c\	-re-	.	4e\	-re-	4e\	-xil	.	4cc\	-xil	.
.	.	4B-X\	-a	.	4d\	-a	4g\	te	.	4ee\	te	.
=64	=64	=64	=64	=64	=64	=64	=64	=64	=64	=64	=64	=64
1ryy	.	(4A\	un-	.	(4c\	un-	2.a\	De-	.	2.ff\	De-	.
.	.	4G\)	.	.	4B-X\)	.	.	.	.	.	.	.
.	.	4F\	-xit	.	4A\	-xil	.	.	.	.	.	.
.	.	4A\	te	.	4c\	te	4a\	-us	.	4ee\	-us	.
!	!	!	!	!	!	!	!LO:LB:g=original	!	!	!	!	!
=65	=65	=65	=65	=65	=65	=65	=65	=65	=65	=65	=65	=65
1ryy	.	2.Bn\	De-	.	2.d\	De-	(4f\	De-	.	(4dd\	De-	.
.	.	.	.	.	.	.	4e\)	.	.	4cc\)	.	.
.	.	.	.	.	.	.	2d\	-us	.	2b\	-us	.
.	.	4A\	-us	.	4c\	-us	.	.	.	.	.	.
!	!	!	!	!	!LO:LB:g=original	!	!	!	!	!LO:LB:g=original	!	!
=66	=66	=66	=66	=66	=66	=66	=66	=66	=66	=66	=66	=66
1ryy	.	(4G\	De-	.	(4B\	De-	2.g\	tu-	.	2.ee\	tu-	.
.	.	4F\)	.	.	4A\)	.	.	.	.	.	.	.
.	.	2E\	-us	.	(4G\	-us	.	.	.	.	.	.
.	.	.	.	.	4B\)	.	4g\	-us	.	4dd\	-us	.
=67	=67	=67	=67	=67	=67	=67	=67	=67	=67	=67	=67	=67
1ryy	.	2.A\	tu-	.	2.c\	tu-	4e\	o-	.	4cc\	o-	.
.	.	.	.	.	.	.	4d\	-le-	.	4b\	-le-	.
.	.	.	.	.	.	.	4c\	-o	.	4a\	-o	.
.	.	4G\	-us	.	4B\	-us	4e\	jus-	.	4cc\	jus-	.
=68	=68	=68	=68	=68	=68	=68	=68	=68	=68	=68	=68	=68
1ryy	.	4F\	o-	.	4A/	o-	2f\	-ti-	.	2dd\	-ti-	.
.	.	4E\	-le-	.	4G/	-le-	.	.	.	.	.	.
.	.	4D\	-o	.	4F/	-o	4f\	-ti-	.	4dd\	-ti-	.
.	.	4D\	jus-	.	4A/	jus-	4a\	-ae	.	4cc\	-ae	.
=69	=69	=69	=69	=69	=69	=69	=69	=69	=69	=69	=69	=69
1ryy	.	2E\	-ti-	.	2e\	-ti-	(4g#X\	prae	.	(4b\	prae	.
.	.	.	.	.	.	.	4f\)	.	.	4a\)	.	.
.	.	4E\	-ti-	.	4e\	-ti-	(4e\	con-	.	(4g#X\	con-	.
.	.	4D\	-ae	.	4B\	-ae	4g#\)	.	.	4b\)	.	.
=70	=70	=70	=70	=70	=70	=70	=70	=70	=70	=70	=70	=70
1ryy	.	4C/	prae	.	4e\	prae	2a\	-sor-	.	2cc\	-sor-	.
.	.	4BB/	.	.	4d\	.	.	.	.	.	.	.
.	.	2AA/	con-	.	2c\	con-	2e\	-ti-	.	4cc\	-ti-	.
.	.	.	.	.	.	.	.	.	.	4b\	-bus	.
!	!	!LO:LB:g=original	!	!	!	!	!	!	!	!	!	!
=71	=71	=71	=71	=71	=71	=71	=71	=71	=71	=71	=71	=71
1ryy	.	2D\	-sor-	.	4d\	-sor-	2f\	-bus	.	1a\	tu-	.
.	.	.	.	.	4c\	-ti-	.	.	.	.	.	.
.	.	4D#X\	-ti-	.	1B\	-bus	2f#X\	tu-	.	.	.	.
.	.	4D#\	-bus	.	.	.	.	.	.	.	.	.
!	!	!	!	!	!	!	!LO:LB:g=original	!	!	!	!	!
=72	=72	=72	=72	=72	=72	=72	=72	=72	=72	=72	=72	=72
1ryy	.	[1E\	tu-	.	.	.	2e\	.	.	2g#X\	.	.
.	.	.	.	.	4c\	tu-	1a\	.	.	2a\	.	.
.	.	.	.	.	4d\	.	.	.	.	.	.	.
=73	=73	=73	=73	=73	=73	=73	=73	=73	=73	=73	=73	=73
1ryy	.	1E\]	.	.	1e\	.	.	.	.	1b\	.	.
.	.	.	.	.	.	.	2g#X\	.	.	.	.	.
=74	=74	=74	=74	=74	=74	=74	=74	=74	=74	=74	=74	=74
0ryy	.	0AA/;	-is	.	0e\;	-is	0a\	-is	.	0cc#X\;	-is	.
!	!	!LO:LB:g=original	!	!	!LO:LB:g=original	!	!	!	!	!LO:LB:g=original	!	!
=75||	=75||	=75||	=75||	=75||	=75||	=75||	=75||	=75||	=75||	=75||	=75||	=75||
*M3/2	*	*M3/2	*	*	*M3/2	*	*M3/2	*	*	*M3/2	*	*
1.ryy	.	2C/	Spe-	.	2.c\	Spe-	2.g\	Spe-	.	2ee\	Spe-	.
.	.	2E/	-ci-	.	.	.	.	.	.	2ee\	-ci-	.
.	.	.	.	.	4c\	-ci-	4g\	-ci-	.	.	.	.
.	.	2C/	-e	.	2c\	-e	2g\	-e	.	2ee\	-e	.
=76	=76	=76	=76	=76	=76	=76	=76	=76	=76	=76	=76	=76
!	!	!	!	!	!	!	!LO:N:vis=2	!	!	!	!	!
1.ryy	.	2G\	tu-	.	(2c\	tu-	1g\	tu-	.	1dd\	tu-	.
.	.	1G\	-a	.	2B\)	.	.	.	.	.	.	.
.	.	.	.	.	2B\	-a	2g\	-a	.	2dd\	-a	.
=77	=77	=77	=77	=77	=77	=77	=77	=77	=77	=77	=77	=77
1.ryy	.	(4E\	Spe-	.	1c\	Spe-	1g\	Spe-	.	1ee\	Spe-	.
.	.	(4D\)	.	.	.	.	.	.	.	.	.	.
.	.	2C/)	.	.	.	.	.	.	.	.	.	.
.	.	2F\	-ci-	.	2c\	-ci-	2a\	-ci-	.	2cc\	-ci-	.
=78	=78	=78	=78	=78	=78	=78	=78	=78	=78	=78	=78	=78
1.ryy	.	2E\	-e	.	2c\	-e	2g\	-e	.	2cc\	-e	.
.	.	(2D\	tu-	.	2c\	tu-	1f\	tu-	.	1dd\	tu-	.
.	.	2G\)	.	.	2B\	.	.	.	.	.	.	.
=79	=79	=79	=79	=79	=79	=79	=79	=79	=79	=79	=79	=79
1.ryy	.	1.C/	-a	.	1.c\	-a	1.g\	-a	.	1.ee\	-a	.
=80	=80	=80	=80	=80	=80	=80	=80	=80	=80	=80	=80	=80
1.ryy	.	0.r	.	.	1.r	.	(4e\	et	.	2cc\	et	.
.	.	.	.	.	.	.	4d\)	.	.	.	.	.
.	.	.	.	.	.	.	(4c\	pul-	.	(4cc\	pul-	.
.	.	.	.	.	.	.	4d\)	.	.	4b\)	.	.
!	!	!	!	!	!	!	!LO:LB:g=original	!	!	!	!	!
.	.	.	.	.	.	.	(4e\	-chri-	.	(4cc\	-chri-	.
.	.	.	.	.	.	.	4f\)	.	.	4a\)	.	.
=81	=81	=81	=81	=81	=81	=81	=81	=81	=81	=81	=81	=81
1.ryy	.	.	.	.	(4B\	et	2g\	-tu-	.	2dd\	-tu-	.
.	.	.	.	.	4A\)	.	.	.	.	.	.	.
.	.	.	.	.	(4G\	pul-	2g\	-di-	.	2dd\	-di-	.
.	.	.	.	.	4A\)	.	.	.	.	.	.	.
.	.	.	.	.	(4B\	-chri-	2g\	-ne	.	2dd\	-ne	.
.	.	.	.	.	4c\)	.	.	.	.	.	.	.
!	!	!	!	!	!LO:LB:g=original	!	!	!	!	!	!	!
=82	=82	=82	=82	=82	=82	=82	=82	=82	=82	=82	=82	=82
1.ryy	.	(4F\	et	.	2d\	-tu-	1f\	tu-	.	(4a\	et	.
.	.	4E\)	.	.	.	.	.	.	.	4g\)	.	.
.	.	(4D\	pul-	.	2d\	-di-	.	.	.	(4f/	pul-	.
.	.	4E\)	.	.	.	.	.	.	.	4g/)	.	.
.	.	(4F\	-chri-	.	2d\	-ne	2f\	-a	.	(4a/	-chri-	.
.	.	4G\)	.	.	.	.	.	.	.	4b/)	.	.
!	!	!LO:LB:g=original	!	!	!	!	!	!	!	!LO:LB:g=original	!	!
=83	=83	=83	=83	=83	=83	=83	=83	=83	=83	=83	=83	=83
1.ryy	.	2A\	-tu-	.	(4c\	et	(4e\	et	.	2.cc\	-tu-	.
.	.	.	.	.	4B\)	.	4d\)	.	.	.	.	.
.	.	2A\	-di-	.	(4A\	pul-	(4c\	pul-	.	.	.	.
.	.	.	.	.	4B\)	.	4d\)	.	.	4cc\	-di-	.
.	.	2A\	-ne	.	(4c\	-chri-	(4e\	-chri-	.	2cc\	-ne	.
.	.	.	.	.	4d\)	.	4f#X\)	.	.	.	.	.
=84	=84	=84	=84	=84	=84	=84	=84	=84	=84	=84	=84	=84
1.ryy	.	(4G#X\	et	.	2e\	-tu-	1g#X\	-tu-	.	(4b\	/et	.
.	.	4F#X\)	.	.	.	.	.	.	.	4a\)	.	.
.	.	(4E\	pul-	.	2e\	-di-	.	.	.	(4g#X\	pul-	.
.	.	4F#\)	.	.	.	.	.	.	.	4a\)	.	.
.	.	(4G#X\	-chri-	.	2e\	-ne	2g#\	-di-	.	(4b\	-chri-	.
.	.	4A\)	.	.	.	.	.	.	.	4cc\)	.	.
=85	=85	=85	=85	=85	=85	=85	=85	=85	=85	=85	=85	=85
!	!	!	!	!	!	!	!LO:SIC:v:s=2g#	!	!	!	!	!
1.ryy	.	2B\	-tu-	.	(2d\	tu-	2g\	-ne	.	2.dd\	-tu-	.
.	.	2G#X\	-di-	.	2B\)	.	1e\	tu-	.	.	.	.
.	.	.	.	.	.	.	.	.	.	4dd\	-di-	.
.	.	2A\	-ne	.	2c\	-a	.	.	.	2cc\	-ne/	.
=86	=86	=86	=86	=86	=86	=86	=86	=86	=86	=86	=86	=86
1.ryy	.	[1.E\	tu-	.	(4G#X/	in-	1e\	-a	.	2b\	tu-	.
.	.	.	.	.	4A/)	.	.	.	.	.	.	.
!	!	!	!	!	!	!LO:MO:mod=-ten-	!	!	!	!	!	!
.	.	.	.	.	(4B\	-te-	.	.	.	2b\	-a	.
.	.	.	.	.	4c\)	.	.	.	.	.	.	.
.	.	.	.	.	(4d\	.	2e\	in-	.	2r	.	.
.	.	.	.	.	4c\)	.	.	.	.	.	.	.
!	!	!	!	!	!LO:PB:g=original	!	!LO:PB:g=original	!	!	!	!	!
=87	=87	=87	=87	=87	=87	=87	=87	=87	=87	=87	=87	=87
1.ryy	.	1.E\_	.	.	4B\	.	1e\	ten-	.	(4g#X\	in-	.
.	.	.	.	.	4A\	.	.	.	.	4a\)	.	.
.	.	.	.	.	4G#X\	.	.	.	.	(4b\	-ten-	.
.	.	.	.	.	4A\	.	.	.	.	4cc\)	.	.
.	.	.	.	.	4B\	.	2e\	-de	.	(4dd\	.	.
.	.	.	.	.	4c\	.	.	.	.	4cc\)	.	.
=88	=88	=88	=88	=88	=88	=88	=88	=88	=88	=88	=88	=88
1.ryy	.	1.E\]	-a	.	1.d\	.	(4g#X\	in-	.	(4b\	.	.
.	.	.	.	.	.	.	4a\)	.	.	4a\	.	.
.	.	.	.	.	.	.	(4b\	-ten-	.	4g#X\	.	.
.	.	.	.	.	.	.	4cc\)	.	.	4a\	.	.
.	.	.	.	.	.	.	(4dd\	.	.	4b\	.	.
.	.	.	.	.	.	.	4cc\)	.	.	4cc\)	.	.
!	!	!	!	!	!	!	!	!	!	!LO:PB:g=original	!	!
=89	=89	=89	=89	=89	=89	=89	=89	=89	=89	=89	=89	=89
1.ryy	.	(4E\	in-	.	1.G#X/	-de	2.b\	.	.	1.dd\	.	.
.	.	4F#X\)	.	.	.	.	.	.	.	.	.	.
.	.	(4G#X\	-ten-	.	.	.	.	.	.	.	.	.
.	.	4A\)	.	.	.	.	4a\	.	.	.	.	.
.	.	(4B\	-de	.	.	.	4g#X\	.	.	.	.	.
.	.	4A\)	.	.	.	.	4a\	.	.	.	.	.
!	!	!LO:PB:g=original	!	!	!	!	!	!	!	!	!	!
=90	=90	=90	=90	=90	=90	=90	=90	=90	=90	=90	=90	=90
1.ryy	.	2G#X\	pro-	.	2d\	pro-	2e\	.	.	1b\	.	.
.	.	2E\	-spe-	.	2d\	.	2g#X\	-de	.	.	.	.
.	.	2A\	-re	.	2e\	.	1a\	pro-	.	1cc\	-de	.
=91	=91	=91	=91	=91	=91	=91	=91	=91	=91	=91	=91	=91
1.ryy	.	2D#X\	et	.	2f#X\	.	.	.	.	.	.	.
.	.	1E\	re-	.	2.e\	.	2a\	-ce-	.	2b\	pro-	.
.	.	.	.	.	.	.	2g#X\	.	.	2b\	-ce-	.
.	.	.	.	.	4e\	-spe-	.	.	.	.	.	.
=92	=92	=92	=92	=92	=92	=92	=92	=92	=92	=92	=92	=92
1.ryy	.	2AA/	-gna	.	2e\	-re	4a\	-de	.	4cc\	-de	.
.	.	.	.	.	.	.	4cc\	in-	.	4ee\	in-	.
!	!	!	!	!	!	!	!	!LO:MO:mod=-ten-	!	!	!	!
.	.	2r	.	.	2r	.	(4cc\	-den-	.	(4ee\	-ten-	.
.	.	.	.	.	.	.	4b\)	.	.	4dd\)	.	.
.	.	2r	.	.	2r	.	(4a\	-de	.	(4cc\	-de	.
.	.	.	.	.	.	.	4gn\)	.	.	4b\)	.	.
!	!	!	!	!	!	!	!LO:LB:g=original	!	!	!	!	!
=93	=93	=93	=93	=93	=93	=93	=93	=93	=93	=93	=93	=93
1.ryy	.	4r	.	.	4r	.	2.a\	pro-	.	2.cc\	pro-	.
.	.	4A\	in-	.	4e\	in-	.	.	.	.	.	.
.	.	(4A\	-ten-	.	2e\	-ten-	.	.	.	.	.	.
.	.	4G\)	.	.	.	.	4a\	-spe-	.	4cc\	-spe-	.
.	.	(4F\	-de	.	(4d\	-de	2a\	-re	.	2cc\	-re	.
.	.	4E\)	.	.	4e\)	.	.	.	.	.	.	.
!	!	!	!	!	!LO:LB:g=original	!	!	!	!	!	!	!
=94	=94	=94	=94	=94	=94	=94	=94	=94	=94	=94	=94	=94
1.ryy	.	2.D\	pro-	.	2.f\	pro-	4r	.	.	4r	.	.
.	.	.	.	.	.	.	4a\	pro-	.	4ff\	pro-	.
.	.	.	.	.	.	.	(4a\	-spe-	.	(4ff\	-spe-	.
.	.	4D\	-spe-	.	4f\	-spe-	4g\)	.	.	4ee\)	.	.
.	.	2D\	-re	.	2f\	-re	4f\	-re	.	4dd\	-re	.
.	.	.	.	.	.	.	4e\	et	.	4cc\	et	.
!	!	!	!	!	!	!	!	!	!	!LO:LB:g=original	!	!
=95	=95	=95	=95	=95	=95	=95	=95	=95	=95	=95	=95	=95
.	.	.	.	.	.	.	8qqe/	.	.	8qqcc/	.	.
1.ryy	.	4r	.	.	4r	.	1d\	re-	.	1b\	re-	.
.	.	4G\	in-	.	2B\	pro-	.	.	.	.	.	.
.	.	(4G\	-ten-	.	.	.	.	.	.	.	.	.
.	.	4F\)	.	.	(4B\	-spe-	.	.	.	.	.	.
.	.	(4E\	-de	.	4c\)	.	2d\	-gna	.	2b\	-gna	.
.	.	4D\)	.	.	4d\	-re	.	.	.	.	.	.
=96	=96	=96	=96	=96	=96	=96	=96	=96	=96	=96	=96	=96
1.ryy	.	2C/	pro-	.	2e\	in-	2g\	in-	.	2ee\	in-	.
.	.	(4C/	-spe-	.	4c\	-ten-	(4g\	-ten-	.	(4ee\	-ten-	.
.	.	4D/)	.	.	4B\	.	4f\)	.	.	4dd\)	.	.
.	.	4E\	-re	.	4c\	.	(4g\	-de	.	(4cc\	-de	.
.	.	4F\	pro-	.	4f\	.	4a\)	.	.	4dd\)	.	.
!	!	!LO:LB:g=original	!	!	!	!	!	!	!	!	!	!
=97	=97	=97	=97	=97	=97	=97	=97	=97	=97	=97	=97	=97
1.ryy	.	[1.G\	-ce-	.	1.d\	.	1.g\	pro-	.	4b\	pro-	.
.	.	.	.	.	.	.	.	.	.	4a\	.	.
.	.	.	.	.	.	.	.	.	.	4g\	.	.
.	.	.	.	.	.	.	.	.	.	4a\	.	.
.	.	.	.	.	.	.	.	.	.	4b\	.	.
.	.	.	.	.	.	.	.	.	.	4cc\	.	.
=98	=98	=98	=98	=98	=98	=98	=98	=98	=98	=98	=98	=98
1.ryy	.	1.G\_	.	.	1.B\	-de	4b\	.	.	4dd\	.	.
.	.	.	.	.	.	.	4a\	.	.	4cc\	.	.
.	.	.	.	.	.	.	4g\	.	.	4b\	.	.
.	.	.	.	.	.	.	4a\	.	.	4cc\	.	.
.	.	.	.	.	.	.	4b\	.	.	4dd\	.	.
.	.	.	.	.	.	.	4cc\	.	.	4ee\	.	.
!	!	!	!	!	!	!	!LO:LB:g=original	!	!	!	!	!
=99	=99	=99	=99	=99	=99	=99	=99	=99	=99	=99	=99	=99
1.ryy	.	1.G\_	.	.	(4B\	pro-	4dd\	.	.	1ff\	.	.
.	.	.	.	.	4A\)	.	4cc\	.	.	.	.	.
.	.	.	.	.	(4G\	.	4b\	.	.	.	.	.
.	.	.	.	.	4A\)	.	4a\	.	.	.	.	.
.	.	.	.	.	(4B\	.	4g\	-spe-	.	2ff\	spe-	.
.	.	.	.	.	4c\)	.	4a\	.	.	.	.	.
=100	=100	=100	=100	=100	=100	=100	=100	=100	=100	=100	=100	=100
1.ryy	.	4G\]	.	.	4d\	.	2b\	-re	.	2dd\	-re	.
.	.	4A\	.	.	4c\	.	.	.	.	.	.	.
.	.	4B\	.	.	4d\	.	2g\	pro-	.	2dd\	pro-	.
.	.	4c\	.	.	4e\	.	.	.	.	.	.	.
!	!	!	!	!	!LO:LB:g=original	!	!	!	!	!	!	!
.	.	4d\	.	.	4f\	.	2g\	-ce-	.	2dd\	-spe-	.
.	.	4c\	.	.	4e\	.	.	.	.	.	.	.
!	!	!	!	!	!	!	!	!	!	!LO:LB:g=original	!	!
=101	=101	=101	=101	=101	=101	=101	=101	=101	=101	=101	=101	=101
1.ryy	.	2B\	.	.	1d\	-ce-	2.g\	-de	.	2.ff\	-re	.
.	.	2G\	.	.	.	.	.	.	.	.	.	.
.	.	.	.	.	.	.	4b\	pro-	.	4ff\	pro-	.
.	.	2c\	de	.	2e\	-de	2g\	-ce-	.	2ee\	-ce-	.
=102	=102	=102	=102	=102	=102	=102	=102	=102	=102	=102	=102	=102
1.ryy	.	2A\	et	.	2c\	et	4f\	-de	.	4ff\	-de	.
.	.	.	.	.	.	.	4g\	et	.	4ee\	et	.
.	.	.	.	.	.	.	.	.	.	8qqee/	.	.
.	.	2F\	re-	.	2c\	re-	2a\	re-	.	1dd\M	re-	.
.	.	2G\	.	.	2B\	.	2g\	.	.	.	.	.
=103	=103	=103	=103	=103	=103	=103	=103	=103	=103	=103	=103	=103
1.ryy	.	4C/	-gna	.	4c\	-gna	1g\	-gna	.	1ee\	-gna	.
.	.	4c\	in-	.	4e\	in-	.	.	.	.	.	.
.	.	4c\	-ten-	.	2e\	-ten-	.	.	.	.	.	.
.	.	4B-X\	.	.	.	.	.	.	.	.	.	.
.	.	4A\	-de	.	(4d\	de	2r	.	.	2r	.	.
.	.	4G\	.	.	4e\)	.	.	.	.	.	.	.
=104	=104	=104	=104	=104	=104	=104	=104	=104	=104	=104	=104	=104
!	!	!	!	!	!	!	!	!	!LO:DY:b	!	!	!LO:DY:a:t=p.
1.ryy	.	2.F\	pro-	.	2.c\	pro-	4r	.	p	4r	.	p
.	.	.	.	.	.	.	4a\	in-	.	4ff\	in-	.
.	.	.	.	.	.	.	(4a\	-ten-	.	(4ff\	-ten-	.
.	.	4F\	-spe-	.	4c\	-spe-	4g\)	.	.	4ee\)	.	.
.	.	2F\	-re	.	2c\	-re	(4f\	-de	.	(4dd\	-de	.
.	.	.	.	.	.	.	4e\)	.	.	4cc\)	.	.
!	!	!LO:LB:g=original	!	!	!	!	!LO:LB:g=original	!	!	!	!	!
=105	=105	=105	=105	=105	=105	=105	=105	=105	=105	=105	=105	=105
.	.	.	.	.	.	.	.	.	.	8qqcc/	.	.
1.ryy	.	4r	.	.	4r	.	2.d\	pro-	.	2.b\	pro-	.
.	.	4G\	in-	.	2B\	pro-	.	.	.	.	.	.
.	.	(4G\	-ten-	.	.	.	.	.	.	.	.	.
.	.	4F\)	.	.	4B\	-spe-	4d\	-spe-	.	4b\	-spe-	.
.	.	(4E\	-de	.	(4c\	-re	2d\	-re	.	2b\	-re	.
.	.	4D\)	.	.	4d\)	.	.	.	.	.	.	.
!	!	!	!	!	!LO:LB:g=original	!	!	!	!	!	!	!
=106	=106	=106	=106	=106	=106	=106	=106	=106	=106	=106	=106	=106
1.ryy	.	2C/	pro-	.	2e\	in-	2g\	in-	.	2ee\	in-	.
.	.	4C/	-spe-	.	4c\	-ten-	4g\	-ten-	.	4ee\	-ten-	.
.	.	4D/	.	.	4B\	.	4f\	.	.	4dd\	.	.
.	.	4E/	-re	.	4c\	.	4g\	.	.	4cc\	.	.
.	.	4F\	pro-	.	4f\	.	4a\	.	.	4dd\	.	.
!	!	!	!	!	!	!	!	!	!	!LO:LB:g=original	!	!
=107	=107	=107	=107	=107	=107	=107	=107	=107	=107	=107	=107	=107
1.ryy	.	[1.G\	-ce-	.	1.d\	.	1g\	-de	.	4b\	.	.
.	.	.	.	.	.	.	.	.	.	4a\	.	.
.	.	.	.	.	.	.	.	.	.	4g\	.	.
.	.	.	.	.	.	.	.	.	.	4a\	.	.
.	.	.	.	.	.	.	2g\	in-	.	4b\	.	.
.	.	.	.	.	.	.	.	.	.	4cc\	.	.
=108	=108	=108	=108	=108	=108	=108	=108	=108	=108	=108	=108	=108
1.ryy	.	1.G\_	.	.	1.B\	-de	4b\	-ten-	.	4dd\	.	.
.	.	.	.	.	.	.	4a\	.	.	4cc\	.	.
.	.	.	.	.	.	.	4g\	.	.	4b\	.	.
.	.	.	.	.	.	.	4a\	.	.	4cc\	.	.
.	.	.	.	.	.	.	4b\	.	.	4dd\	.	.
.	.	.	.	.	.	.	4cc\	.	.	4ee\	.	.
=109	=109	=109	=109	=109	=109	=109	=109	=109	=109	=109	=109	=109
1.ryy	.	1.G\_	.	.	(4B\	pros-	4dd\	.	.	1.ff\	.	.
.	.	.	.	.	4A\)	.	4cc\	.	.	.	.	.
.	.	.	.	.	(4G\	-pe-	4b\	.	.	.	.	.
.	.	.	.	.	4A\)	.	4a\	.	.	.	.	.
.	.	.	.	.	(4B\	-re	4g\	.	.	.	.	.
.	.	.	.	.	4c\)	.	4a\	.	.	.	.	.
=110	=110	=110	=110	=110	=110	=110	=110	=110	=110	=110	=110	=110
1.ryy	.	4G\]	.	.	4d\	pro-	2b\	-de	.	2dd\	-de	.
.	.	4A\	.	.	4c\	.	.	.	.	.	.	.
.	.	4B\	.	.	4d\	.	2g\	pro-	.	2dd\	pro-	.
.	.	4c\	.	.	4e\	.	.	.	.	.	.	.
.	.	4d\	.	.	4f\	.	2g\	-spe-	.	2dd\	-spe-	.
.	.	4c\	.	.	4e\	.	.	.	.	.	.	.
!	!	!	!	!	!	!	!LO:LB:g=original	!	!	!	!	!
=111	=111	=111	=111	=111	=111	=111	=111	=111	=111	=111	=111	=111
1.ryy	.	2B\	.	.	1d\	-ce-	2g\	-re	.	2.ff\	-re	.
.	.	2G\	.	.	.	.	2b\	pro-	.	.	.	.
.	.	.	.	.	.	.	.	.	.	4ff\	pro-	.
.	.	2c\	-de	.	2e\	-de	2g\	-ce-	.	2ee\	-ce-	.
!	!	!LO:LB:g=original	!	!	!	!	!	!	!	!	!	!
=112	=112	=112	=112	=112	=112	=112	=112	=112	=112	=112	=112	=112
1.ryy	.	2A\	et	.	2c\	et	4f\	-de	.	4ff\	-de	.
.	.	.	.	.	.	.	4g\	et	.	4ee\	et	.
.	.	.	.	.	.	.	.	.	.	8qqee/	.	.
.	.	2F\	re-	.	(2c\	re-	2a\	re-	.	1dd\	re-	.
.	.	2G\	.	.	2B\)	.	2g\	.	.	.	.	.
!	!	!	!	!	!LO:LB:g=original	!	!	!	!	!LO:LB:g=original	!	!
=113	=113	=113	=113	=113	=113	=113	=113	=113	=113	=113	=113	=113
1.ryy	.	2C/	-gna	.	2c\	-gna	2g\	-gna	.	2ee\	-gna	.
!	!	!	!	!	!	!	!	!	!	!	!	!LO:DY:b:t=for
.	.	(2F\	et	.	(4A\	et	(2a\	et	f	1cc\	et	f
.	.	.	.	.	4B-X\)	.	.	.	.	.	.	.
.	.	2E\)	.	.	2c\	.	2g\)	.	.	.	.	.
=114	=114	=114	=114	=114	=114	=114	=114	=114	=114	=114	=114	=114
1.ryy	.	1.F\	re-	.	1.A\	re-	1.f\	re-	.	1.cc\	re-	.
=115	=115	=115	=115	=115	=115	=115	=115	=115	=115	=115	=115	=115
1.ryy	.	1.C/;	-gna	.	1.G/	-gna	1.e\;	-gna	.	1.cc\;	-gna	.
==	==	==	==	==	==	==	==	==	==	==	==	==
*-	*-	*-	*-	*-	*-	*-	*-	*-	*-	*-	*-	*-
!!!system-decoration: [(s1,s2,s3,s4)]s5
!!!EED: Leszek Kubiak
!!!EEV: 2021-04-09
!!!ENC: Andrzej Kubiczek
!!!END: 2021-03-21
